X: 34
T:Hoff Fron
T:Fond Heart
M:C|
L:1/8
Q:150
S:Robin Huw Bowen
A:Wales
Z:brian_martin12345@yahoo.com
K:Gm
d^cd=e f2 ed|^c2d2A2A2|G^FGAB2AG|A2d2G2G2:||
F3F ABcA|F2F2A2c2|!f2=e2defe|dcB2ABc2|
d^cdB GABG|c=BcA FGAF|G^FGA B2AG|A2d2G4:||
